src/categories-icons-sprite/categories/svg-cat-home-linens2.svg

<svg width="34" height="34" viewBox="0 0 34 34" fill="none" xmlns="http://www.w3.org/2000/svg">
<path class="p-E5B728" d="M13.0156 9.36328L17 15.0078H22.3789L25.6992 13.6797L29.0195 15.0078H33.0039V9.36328H13.0156Z" fill="#4D98CB"/>
<path class="p-FFD75A" d="M17 9.36328H0.996094V15.0078H17V9.36328Z" fill="#65B3E7"/>
<path class="p-146D47" d="M32.0078 10.0273L33.0039 11.0234H30.0156L29.0195 12.3516L28.0234 11.0234H23.375L22.3789 12.3516L21.3828 11.0234H17L15.0078 9.03125L17 7.03906H29.0195C30.6631 7.03906 32.0078 8.38379 32.0078 10.0273Z" fill="#58ADE5"/>
<path class="p-A3EBFE" d="M10.7293 4.05078H4.98047C3.33691 4.05078 1.99219 5.39551 1.99219 7.03906L7.85493 9.69531L13.7177 7.03906C13.7176 5.39551 12.3729 4.05078 10.7293 4.05078Z" fill="#A1D1FD"/>
<path class="p-299B6A" d="M17 7.03906H0.996094V11.0234H17V7.03906Z" fill="#B9DFFC"/>
<path class="p-E5B728" d="M13.0156 25.3008L17 30.9453H22.3789L25.6992 29.9492L29.0195 30.9453H33.0039V25.3008H13.0156Z" fill="#4D98CB"/>
<path class="p-FFD75A" d="M17 25.3008H0.996094V30.9453H17V25.3008Z" fill="#65B3E7"/>
<path class="p-146D47" d="M32.0078 25.9648L33.0039 26.9609H29.0195L25.6992 25.9648L22.3789 26.9609H17L15.0078 24.9688L17 22.9766H22.3789L25.6992 21.9805L29.0195 22.9766C30.6631 22.9766 32.0078 24.3213 32.0078 25.9648Z" fill="#58ADE5"/>
<path class="p-A3EBFE" d="M10.7293 19.9883H4.98047C3.33691 19.9883 1.99219 21.333 1.99219 22.9766L7.85493 25.6328L13.7177 22.9766C13.7176 21.333 12.3729 19.9883 10.7293 19.9883Z" fill="#A1D1FD"/>
<path class="p-299B6A" d="M17 22.9766H0.996094V26.9609H17V22.9766Z" fill="#B9DFFC"/>
<path class="p-1B7CD5" d="M34 34V3.05469C34 2.50456 33.554 2.05859 33.0039 2.05859C32.4538 2.05859 32.0078 2.50456 32.0078 3.05469V34H34Z" fill="#65B3E7"/>
<path class="p-57AEFF" d="M1.99219 34V0.996094C1.99219 0.445966 1.54622 0 0.996094 0C0.445966 0 0 0.445966 0 0.996094V34H1.99219Z" fill="#5FBEFF"/>
<path class="p-57AEFF" d="M29.0195 17H22.3789V18.9922H29.0195V17Z" fill="#B9DFFC"/>
<path class="p-57AEFF" d="M29.0195 20.9844H22.3789V22.9766H29.0195V20.9844Z" fill="#B9DFFC"/>
<path class="p-57AEFF" d="M29.0195 28.9531H22.3789V30.9453H29.0195V28.9531Z" fill="#B9DFFC"/>
<path class="p-57AEFF" d="M29.0195 24.9688H22.3789V26.9609H29.0195V24.9688Z" fill="#B9DFFC"/>
<path class="p-57AEFF" d="M29.0195 13.0156H22.3789V15.0078H29.0195V13.0156Z" fill="#B9DFFC"/>
<path class="p-1B7CD5" d="M30.0156 11.0234H28.0234V34H30.0156V11.0234Z" fill="#A1D1FD"/>
<path class="p-1B7CD5" d="M23.375 11.0234H21.3828V34H23.375V11.0234Z" fill="#A1D1FD"/>
</svg>

<svg width="34" height="34" fill="none" xmlns="http://www.w3.org/2000/svg"><path class="p-E5B728" d="M13.016 9.363L17 15.008h5.379l3.32-1.328 3.32 1.328h3.985V9.363H13.016z" fill="#4D98CB"/><path class="p-FFD75A" d="M17 9.363H.996v5.645H17V9.363z" fill="#65B3E7"/><path class="p-146D47" d="M32.008 10.027l.996.996h-2.988l-.996 1.329-.997-1.329h-4.648l-.996 1.329-.996-1.329H17l-1.992-1.992L17 7.04h12.02a2.997 2.997 0 012.988 2.988z" fill="#58ADE5"/><path class="p-A3EBFE" d="M10.73 4.05H4.98a2.997 2.997 0 00-2.988 2.99l5.863 2.655 5.863-2.656a2.997 2.997 0 00-2.989-2.988z" fill="#A1D1FD"/><path class="p-299B6A" d="M17 7.04H.996v3.983H17V7.04z" fill="#B9DFFC"/><path class="p-E5B728" d="M13.016 25.3L17 30.946h5.379l3.32-.996 3.32.996h3.985v-5.644H13.016z" fill="#4D98CB"/><path class="p-FFD75A" d="M17 25.3H.996v5.645H17v-5.644z" fill="#65B3E7"/><path class="p-146D47" d="M32.008 25.965l.996.996H29.02l-3.32-.996-3.321.996H17l-1.992-1.992L17 22.977h5.379l3.32-.997 3.32.997a2.997 2.997 0 012.989 2.988z" fill="#58ADE5"/><path class="p-A3EBFE" d="M10.73 19.988H4.98a2.997 2.997 0 00-2.988 2.989l5.863 2.656 5.863-2.656a2.997 2.997 0 00-2.989-2.989z" fill="#A1D1FD"/><path class="p-299B6A" d="M17 22.977H.996v3.984H17v-3.984z" fill="#B9DFFC"/><path class="p-1B7CD5" d="M34 34V3.055a.996.996 0 00-1.992 0V34H34z" fill="#65B3E7"/><path class="p-57AEFF" d="M1.992 34V.996A.996.996 0 000 .996V34h1.992z" fill="#5FBEFF"/><path class="p-57AEFF" d="M29.02 17h-6.641v1.992h6.64V17zM29.02 20.984h-6.641v1.993h6.64v-1.993zM29.02 28.953h-6.641v1.992h6.64v-1.992zM29.02 24.969h-6.641v1.992h6.64v-1.992zM29.02 13.016h-6.641v1.992h6.64v-1.992z" fill="#B9DFFC"/><path class="p-1B7CD5" d="M30.016 11.023h-1.993V34h1.993V11.023zM23.375 11.023h-1.992V34h1.992V11.023z" fill="#A1D1FD"/></svg>
